X:1
T:Title
%%score { ( 1 3 ) | ( 2 4 ) }
L:1/8
M:4/4
K:D
V:1 treble nm="Grand Piano"
V:3 treble 
V:2 bass 
V:4 bass 
V:1
 z4 z2[Q:1/4=94] D>E | F>E F>[EG] [FA]>[DF] [EG]>[FA] | B>^A B>c d2 [Ac]>[GB] | %3
 [FA]>[FA] F>A B>A G>F | [CE]6 [CE]>[DF] | [EG]>[FA] [EG]>[DF] [CE]2 [DF]>[EG] | %6
 [FA]>[GB] [FA]>[EG] [DF]2 [FA]>[FA] | ^G>G G>A [GB]>[GB] [Gc]>[Gd] | c8 | [Fd]2 [GB]2 [FA]>F D>E | %10
 F>G [CE]>[CF] D2 E>F | G6 z2 | A6 z2 | [^DB]>[D=c] [FB]>[FA] G2 F>G | %14
 [EA]>[EB] [CA]>[EG] [DF]2 [FA]>[FA] | B>c d>[GB] [Gd]2 [Gc]2 |[M:3/4] [Fd]6 |] %17
V:2
 z4 z2 [D,F,]>[D,G,D] | [D,A,D]>[D,A,C] [D,A,D]>[D,A,] [D,D]>[D,A,] [D,A,]>[D,D] | %2
 [G,DG]>[G,CG] [G,DG]>[G,A,G] [G,B,G]2[K:bass] [G,C]>[G,D] | %3
 [D,D]>[D,D] [D,A,D]>[D,F,D] [G,D]>[F,A,D] [E,A,C]>[D,A,D] | [A,,A,]6 [A,,A,]>[A,,A,] | %5
 [A,,A,]>[A,,A,] [A,,A,]>[A,,A,] [A,,A,]2 [D,A,]>[D,A,] | %6
 [D,D]>[D,D] [D,D]>[D,A,] [D,A,]2 [D,D]>[D,D] | %7
 [E,B,E]>[E,B,E] [E,B,E]>[E,CE] [E,D]>[E,D] [E,E]>[E,E] | A4 z4 | %9
 [D,D]2 [D,D]2 [D,D]>[D,A,D] [F,A,]>[G,B,D] | [A,D]>[A,E] [A,,G,]>[A,,A,] [D,F,]2 C>D | %11
 E2 [C,A,]>[B,,A,] [A,,A,]2[K:treble] D>E | F2[K:bass] [D,A,]>[D,G,] [D,F,]2 [=C,A,]>[C,A,] | %13
 [B,,A,]>[B,,A,] [^D,B,]>[D,B,] [E,B,E]2 [E,B,E]>[E,B,E] | %14
 [C,A,]>[C,A,] [A,,A,]>[A,,A,] [D,A,]2 [D,D]>[D,D] | %15
 [G,DG]>[G,CG] [G,B,G]>[K:bass][E,E] [A,E]2 [A,E]2 |[M:3/4] [D,D]6 |] %17
V:3
 x8 | x8 | x8 | x8 | x8 | x8 | x8 | x8 | z4 G4 | x8 | x8 | z2 E>D C2 F>G | z2 F>E D2 [EA]>[EA] | %13
 x8 | x8 | x8 |[M:3/4] x6 |] %17
V:4
 x8 | x8 | x6[K:bass] x2 | x8 | x8 | x8 | x8 | x8 | [A,E]8 | x8 | x8 | x6[K:treble] x2 | %12
 x2[K:bass] x6 | x8 | x8 | x7/2[K:bass] x9/2 |[M:3/4] x6 |] %17

